X: 3702
T: Moment of Truth
P: Miss Erskine of Torry
C:J. Walker (Glen Coll.)
B:RSCDS 37-2
Z:Anselm Lingnau <anselm@strathspey.org>
R:Strathspey (8x32)
M:C
L:1/8
K:Am
B|"Am"c<AA>B c<AA>c|"G"B<dd>c BGGB|\
     "Am"c>A "Bo"d>B "Am/C"e>c "Dm"d>B|"E7"e/d/c/B/ e>B "Am"cAAB|
  "Am"c<AA>B c<AA>c|"G"B<dd>c BGGB|\
     "Am"c>A "E7/G#"d>B "Am"e>c "Dm"d>B|"E7"e/d/c/B/ e>B "Am"cAA||
^g|"Am"a>e e>d c>A A>c|"G"B>gdg BGG^g|\
     "Am"a>e e>d c>A "F"a>g|"Dm"f/e/d/c/ "E7"B/c/d/B/ "Am"cAA^g|
   "Am"a>e e>d c>A A>c|"G"B>gdg BGGB|\
     "Am"((3ABc) "E7/G#"((3Bcd) "Am"((3cde) "Dm"((3def)|"E7"e>a ^g>b "Am"aAA:|
%%center Book37/3702-Moment_of_Truth-AL.abc

%%sep 1 1 500
%%sep 1 1 500

